resources/svg/list-unordered-o.svg

<svg width="15" height="15" viewBox="0 0 15 15" fill="none" xmlns="http://www.w3.org/2000/svg">
<path d="M4 7.5H15M0 7.5H2M4 3.5H15M0 3.5H2M4 11.5H15M0 11.5H2" stroke="black"/>
</svg>

<svg viewBox="0 0 15 15" fill="none" xmlns="http://www.w3.org/2000/svg" fill="currentColor"><path d="M4 7.5h11m-15 0h2m2-4h11m-15 0h2m2 8h11m-15 0h2" stroke="currentColor"/></svg>
